X: 1691
T: Ballincollig in the Morning   #2
R: hornpipe, reel
%S: s:3 b:13(6+7)
B: O'Neill's 1850 #1691
O: F.O'Neill
M: 2/4
L: 1/16
K: G
(Bc) | dBAB G2AB | cBAG F2(Bc) | dBge [1,3 dBGA | B2A2 A2 :|[2,4 dBAB | G2GG G2 :: (Bc) | dBge dBGB |
| dBge d2(Bc) | dBge dBGA | B2A2 A2(ge) || dcBA F2(Bc) | cBAG F2(Bc) | dBge dBAB | G2GG G2 :|
